styles/mysource_files/icon-quote.svg

<?xml version="1.0" encoding="UTF-8" standalone="no"?>
<svg width="23px" height="23px" viewBox="0 0 23 23" version="1.1" xmlns="http://www.w3.org/2000/svg" xmlns:xlink="http://www.w3.org/1999/xlink">
    <!-- Generator: sketchtool 40.2 (33826) - http://www.bohemiancoding.com/sketch -->
    <title>BCE513C4-2D5B-4F02-91FC-5DC20831E940</title>
    <desc>Created with sketchtool.</desc>
    <defs></defs>
    <g id="Desktop" stroke="none" stroke-width="1" fill="none" fill-rule="evenodd">
        <g id="01_Home" transform="translate(-692.000000, -30.000000)" fill="#840B14">
            <g id="Group-23" transform="translate(250.000000, -1.000000)">
                <g id="Group-20" transform="translate(287.000000, 30.000000)">
                    <g id="Group-22" transform="translate(155.000000, 1.000000)">
                        <path d="M7.43989808,6 C6.63592137,6 6,6.67564354 6,7.46312027 L6,12.3567693 C6,13.1551238 6.66146578,13.8236785 7.46666471,13.8236785 L8.62777427,13.8236785 L8.20378595,16.5780748 C8.17335266,16.7782745 8.3109747,16.9652743 8.51117443,16.9958298 C8.64305203,17.0158742 8.77554074,16.9627076 8.85694063,16.8568633 L11.1905264,13.8236785 L14.5555441,13.8236785 C15.3450986,13.8236785 16.0222089,13.1933793 16.0222089,12.3949026 L16.0222089,7.46312027 C16.0222089,6.66476578 15.3595209,6 14.5555441,6 L7.43989808,6 L7.43989808,6 Z M11.144648,0 C4.98969954,0 0,4.98984814 0,11.1447966 C0,17.2995965 4.98969954,22.2898162 11.144648,22.2898162 C17.2995965,22.2898162 22.2896676,17.2995965 22.2896676,11.1447966 C22.2896676,4.98969954 17.2995965,0 11.144648,0 L11.144648,0 Z" id="Fill-1"></path>
                    </g>
                </g>
            </g>
        </g>
    </g>
</svg>

<svg width="23" height="23" viewBox="0 0 23 23" xmlns="http://www.w3.org/2000/svg"><title>BCE513C4-2D5B-4F02-91FC-5DC20831E940</title><path d="M7.44 6C6.636 6 6 6.676 6 7.463v4.894c0 .798.661 1.467 1.467 1.467h1.16l-.423 2.754a.367.367 0 0 0 .653.279l2.334-3.033h3.365c.79 0 1.466-.63 1.466-1.43v-4.93c0-.8-.662-1.464-1.466-1.464H7.44zm3.705-6C4.99 0 0 4.99 0 11.145 0 17.3 4.99 22.29 11.145 22.29c6.155 0 11.145-4.99 11.145-11.145C22.29 4.99 17.3 0 11.145 0z" fill="#840B14" fill-rule="evenodd"/></svg>
